packages/blockchain-info-components/src/Images/img/buy-blue-circle.svg

<svg fill="none" height="24" viewBox="0 0 24 24" width="24" xmlns="http://www.w3.org/2000/svg"><circle cx="12" cy="12" fill="#d8ebfd" r="12"/><path d="m11.7488 6c-.4142 0-.75.33579-.75.75v4.2488h-4.2488c-.41421 0-.75.3358-.75.75v.5025c0 .4142.33579.75.75.75h4.2488v4.2487c0 .4142.3358.75.75.75h.5025c.4142 0 .75-.3358.75-.75v-4.2487h4.2487c.4142 0 .75-.3358.75-.75v-.5025c0-.4142-.3358-.75-.75-.75h-4.2487v-4.2488c0-.41421-.3358-.75-.75-.75z" fill="#0c6cf2"/></svg>

<svg width="24" height="24" viewBox="0 0 24 24" fill="none" xmlns="http://www.w3.org/2000/svg">
<circle cx="12" cy="12" r="12" fill="#D8EBFD"/>
<path d="M11.7488 6C11.3346 6 10.9988 6.33579 10.9988 6.75V10.9988H6.75C6.33579 10.9988 6 11.3346 6 11.7488V12.2513C6 12.6655 6.33579 13.0013 6.75 13.0013H10.9988V17.25C10.9988 17.6642 11.3346 18 11.7488 18H12.2513C12.6655 18 13.0013 17.6642 13.0013 17.25V13.0013H17.25C17.6642 13.0013 18 12.6655 18 12.2513V11.7488C18 11.3346 17.6642 10.9988 17.25 10.9988H13.0013V6.75C13.0013 6.33579 12.6655 6 12.2513 6H11.7488Z" fill="#0C6CF2"/>
</svg>
